!!!!SEGMENT: pl-sa--l-1643--087_anonim--jubilate-deo-omnis-terra-servite-domino.krn
!!!cenid: 16xx:1445
!!!COM: Anonim
!!!COM-rismid: pe30004985
!!!CDT:
!!!CNT:
!!!OTL: Jubilate Deo omnis terra servite Domino
!!!PDT:
!!!AGN: Sacred
!!!SMS-siglum: PL-SA
!!!SMS-shelfmark: L 1643
!!!SMS-shelfwork: 087 W
!!!SMS-variant:
!!!SMS-altvar:
!!!NIFC-rismid: 1001064256
!!!URL-scan: http://repozytorium.nifc.pl/skany/pl-sa-nut--l1643
!!!ONB-nifc: UWAGA: 8 ksig. Primi chori: 1mus Cantus (155-157), C 2dus (157-159), C 3tius (153-155), Bassus (153-155); Secondi chori: Primus Cantus (x), C 2dus (x), Altus (x), Bassus (x). UWAGA: Nie dodawa pustych linii, chyba |e w rkopisie pojawiaj si dodatkowe oznaczenia dotyczce peBnej obsady (a 4, a 8 itp.)
**kern	**text	**kern	**text	**kern	**text	**kern	**text
*part4	*part4	*part3	*part3	*part2	*part2	*part1	*part1
*staff4	*staff4	*staff3	*staff3	*staff2	*staff2	*staff1	*staff1
*I"Primi Chori: Bassus.	*	*I"Primi Chori: Cantus 3tius	*	*I"Primi Chori: Cantus 2dus	*	*I"Primi Chori: Im(us) Cantus	*
*I'Coro 1: B	*	*I'Coro 1: S 3	*	*I'Coro 1: S 2	*	*I'Coro 1: S 1	*
*clefC3	*	*clefC2	*	*clefC1	*	*clefG2	*
*k[b-]	*	*k[b-]	*	*k[b-]	*	*k[b-]	*
*F:	*	*F:	*	*F:	*	*F:	*
*M2/2	*	*M2/2	*	*M2/2	*	*M2/2	*
*met(c|)	*	*met(c|)	*	*met(c|)	*	*met(c|)	*
=1-	=1-	=1-	=1-	=1-	=1-	=1-	=1-
!	!	!	!	!	!	!LO:TX:t=P:problem:W utworze pojawiają się nadmiarowe oddechy	!
4.F/	Ju-	4.f\	Ju-	4.f/	Ju-	4.a/	Ju-
8F/	-bi-	8f\	-bi-	8g/	-bi-	8b-/	-bi-
4F/	-la-	4f\	-la-	4a\	-la-	4cc\	-la-
4F/	-te	4f\	-te	4a\	-te	4cc\	-te
=2-	=2-	=2-	=2-	=2-	=2-	=2-	=2-
2B-/	De-	2f\	De-	2b-\	De-	2dd\	De-
2B-/	-o	2f\	-o	2b-,<\	-o	2dd,<\	-o
=3-	=3-	=3-	=3-	=3-	=3-	=3-	=3-
1.F	o-	2f\	o-	4a\	o-	4cc\	o-
.	.	.	.	4g/	.	4b-\	.
.	.	2f\	-mnis	4f/	.	4a/	.
.	.	.	.	4e/	.	4g/	.
=4-	=4-	=4-	=4-	=4-	=4-	=4-	=4-
.	.	4f\	ter-	2f/	.	2a/	.
.	.	4d/	.	.	.	.	.
2G/	-mnis	2.g\	.	2b-\	-mnis	2b-/	-mnis
=5-	=5-	=5-	=5-	=5-	=5-	=5-	=5-
*	*	*	*	*lig	*	*	*
2.A/	ter-	.	.	1a	ter-	0cc	ter-
.	.	4f\	.	.	.	.	.
.	.	2.f\	.	.	.	.	.
4B-/	.	.	.	.	.	.	.
=6-	=6-	=6-	=6-	=6-	=6-	=6-	=6-
1c	.	.	.	1g	.	.	.
.	.	8e/L	.	.	.	.	.
.	.	8d/J	.	.	.	.	.
.	.	2e/	.	.	.	.	.
*	*	*	*	*Xlig	*	*	*
=7-	=7-	=7-	=7-	=7-	=7-	=7-	=7-
1F	-ra	1f	-ra	1a	-ra	1cc	-ra
=8-	=8-	=8-	=8-	=8-	=8-	=8-	=8-
4.F/	iu-	1r	.	4.a\	iu-	1r	.
8G/	-bi-	.	.	8b-\	-bi-	.	.
4A/	-la-	.	.	4cc\	-la-	.	.
4F/	-te	.	.	4a\	-te	.	.
=9-	=9-	=9-	=9-	=9-	=9-	=9-	=9-
4.G/	iu-	4.g\	iu-	4.b-\	iu-	4.dd\	Ju-
8A/	-bi-	8g\	-bi-	8cc\	-bi-	8dd\	-bi-
4B-/	-la-	4g\	-la-	4dd\	-la-	4dd\	-la-
4G/	-te	4g\	-te	4b-\	-te	4dd\	-te
=10-	=10-	=10-	=10-	=10-	=10-	=10-	=10-
!LO:SIC:v:t=custos G	!	!	!	!	!	!	!
2d\	De-	(4g\	De-	2a\	De-	2dd\	De-
!	!	!LO:TX:b:t=P:problem:# below	!	!	!	!	!
.	.	4f#X\)	.	.	.	.	.
!	!	!	!	!LO:TX:b:t=P:problem:# below	!	!	!
!LO:TX:t=P:problem:dźwięk niewidoczny	!	!	!	!LO:N:acc=#	!	!	!
!LO:LB:g=original	!	!LO:SIC:v:t=custos g	!	!LO:SIC:v:t=custos b	!	!LO:SIC:v:t=custos dd	!
2ryy	-o	2g\	-o	2bn\	-o	2dd\	-o
=11-	=11-	=11-	=11-	=11-	=11-	=11-	=11-
!	!	!LO:LB:g=original	!	!LO:LB:g=original	!	!LO:LB:g=original	!
4.B-/	iu-	1r	.	1r	.	4.dd\	iu-
8c/	-bi-	.	.	.	.	8ee\	-bi-
4d\	-la-	.	.	.	.	4ff\	-la-
4B-/	-te	.	.	.	.	4dd\	-te
=12-	=12-	=12-	=12-	=12-	=12-	=12-	=12-
4.e-X\	iu-	4.g\	iu-	4.b-y\	iu-	4.ee-X\	iu-
8d\	-bi-	8g\	-bi-	8b-\	-bi-	8ee-\	-bi-
4c/	-la-	4g\	-la-	4cc\	-la-	4ee-\	-la-
4c/	-te	4g\	-te	4cc\	-te	4ee-\	-te
=13-	=13-	=13-	=13-	=13-	=13-	=13-	=13-
!	!	!	!	!LO:N:acc=#	!	!	!
1G	De-	1g	De-	4bn\	De-	4dd\	De-
.	.	.	.	2cc\	.	4ee-X\	.
.	.	.	.	.	.	2dd\	.
!	!	!	!	!LO:N:acc=#	!	!	!
.	.	.	.	4bn\	.	.	.
=14-	=14-	=14-	=14-	=14-	=14-	=14-	=14-
2c/	-o	1g	-o	1cc	-o	1cc	-o
4c/	o-	.	.	.	.	.	.
4B-/	.	.	.	.	.	.	.
=15-	=15-	=15-	=15-	=15-	=15-	=15-	=15-
4A/	.	1r	.	4a\	o-	4cc\	o-
4G/	.	.	.	4b-y\	.	4b-/	.
1F/	.	.	.	1cc\	.	4a/	.
.	.	.	.	.	.	4g/	.
=16-	=16-	=16-	=16-	=16-	=16-	=16-	=16-
.	.	2.fny\	o-	.	.	4a/	.
.	.	.	.	.	.	4b-/	.
2F/	-mnis	.	.	2a,<\	-mnis	2cc\	-mnis
.	.	4e/	.	.	.	.	.
=17-	=17-	=17-	=17-	=17-	=17-	=17-	=17-
*	*	*	*	*	*	*2\right	*
2.B-/	ter-	2d/	.	1b-	ter-	2dd\	ter-
.	.	2g\	-mnis	.	.	2b-\	.
*	*	*	*	*	*	*2\left	*
8A/L	.	.	.	.	.	.	.
8G/J	.	.	.	.	.	.	.
=18-	=18-	=18-	=18-	=18-	=18-	=18-	=18-
2.A/	.	4g\	ter-	1a,<	.	0cc	.
.	.	4f\	.	.	.	.	.
.	.	1f\	.	.	.	.	.
4B-/	.	.	.	.	.	.	.
=19-	=19-	=19-	=19-	=19-	=19-	=19-	=19-
1c	.	.	.	1g	.	.	.
.	.	2e/	.	.	.	.	.
=20-	=20-	=20-	=20-	=20-	=20-	=20-	=20-
1F,<	-ra	1f	-ra	1a,<	-ra	1cc	-ra
=21-	=21-	=21-	=21-	=21-	=21-	=21-	=21-
2f\	ser-	2a\	ser-	2cc\	ser-	1r	.
!LO:SIC:v:t=custos f	!	!	!	!	!	!	!
2B-/	-vi-	2b-\	-vi-	2dd\	-vi-	.	.
=22-	=22-	=22-	=22-	=22-	=22-	=22-	=22-
!LO:LB:g=original	!	!	!	!	!	!	!
4f\	-te	4a\	-te	4cc\	-te	4r	.
4f\	ser-	4f\	ser-	4a\	ser-	4cc\	ser-
!	!	!	!	!	!	!LO:SIC:v:t=custos cc	!
2B-/	-vi-	2f\	-vi-	2b-\	-vi-	2dd\	-vi-
=23-	=23-	=23-	=23-	=23-	=23-	=23-	=23-
!	!	!	!	!	!	!LO:LB:g=original	!
4F/	-te	4a\	-te	4a\	-te	4cc\	-te
4F/	ser-	4a\	ser-	4a\	ser-	4cc\	ser-
2B-/	-vi-	2f\	-vi-	2b-\	-vi-	2dd\	-vi-
=24-	=24-	=24-	=24-	=24-	=24-	=24-	=24-
!	!	!LO:SIC:v:t=custos f	!	!LO:SIC:v:t=custos b	!	!	!
2f\	-te	2f\	-te	2a\	-te	2cc\	-te
!	!	!LO:LB:g=original	!	!LO:LB:g=original	!	!	!
2.B-/	Do-	2.f\	Do-	2.b-\	Do-	2.dd\	Do-
=25-	=25-	=25-	=25-	=25-	=25-	=25-	=25-
.	.	.	.	.	.	.	.
4B-/	-mi-	4f\	-mi-	4b-\	-mi-	4dd\	-mi-
2F/	-no	2f\	-no	2a\	-no	2cc\	-no
=26-	=26-	=26-	=26-	=26-	=26-	=26-	=26-
2B-/	in	2f\	in	2b-\	in	2dd\	in
2B-/	lae-	2f\	lae-	2b-\	lae-	2dd\	lae-
=27-	=27-	=27-	=27-	=27-	=27-	=27-	=27-
2.B-/	-ti-	2.f\	-ti-	4b-\	-ti-	4dd\	-ti-
.	.	.	.	4cc\	.	4eeny\	.
.	.	.	.	4dd\	.	4ff\	.
4B-/	-ti-	4f\	-ti-	4cc\	.	4ee\	.
=28-	=28-	=28-	=28-	=28-	=28-	=28-	=28-
1B-,<	-a	2f\	-a	4b-\	.	4dd\	.
.	.	.	.	4a\	.	4cc\	.
.	.	4f\	in	4g/	.	4b-/	.
.	.	4f\	lae-	4f/	.	4a/	.
=29-	=29-	=29-	=29-	=29-	=29-	=29-	=29-
2c/	in	2e/	-ti-	2g/	.	2g/	.
2d\	lae-	1f\	.	2f/	.	2a/	.
=30-	=30-	=30-	=30-	=30-	=30-	=30-	=30-
2.c/	-ti-	.	.	2.g/	.	2.g/	.
.	.	2e/	-ti-	.	.	.	.
4c/	-ti-	.	.	4g/	-ti-	4g/	-ti-
=31-	=31-	=31-	=31-	=31-	=31-	=31-	=31-
4F/	-a	4f\	-a	1f	-a	1a	-a
4f\	ser-	4a\	ser-	.	.	.	.
4f\	-vi-	4a\	-vi-	.	.	.	.
4f\	-te	4a\	-te	.	.	.	.
=32-	=32-	=32-	=32-	=32-	=32-	=32-	=32-
4.eny\	Do-	4.g\	Do-	2r	.	2r	.
8f\	-mi-	8a\	-mi-	.	.	.	.
!LO:SIC:v:t=custos g	!	!	!	!	!	!	!
2g\	-no	2b-\	-no	4r	.	4r	.
.	.	.	.	4b-\	ser-	4dd\	ser-
=33-	=33-	=33-	=33-	=33-	=33-	=33-	=33-
!LO:LB:g=original	!	!	!	!	!	!	!
4r	.	4r	.	4b-\	-vi-	4dd\	-vi-
4g\	ser-	4g\	ser-	4b-\	-te	4dd\	-te
4g\	-vi-	4g\	-vi-	4.b-\	Do-	4.dd\	Do-
4g\	-te	4g\	-te	.	.	.	.
!	!	!	!	!	!	!LO:SIC:v:t=custos ff	!
.	.	.	.	8cc\	-mi-	8dd\	-mi-
=34-	=34-	=34-	=34-	=34-	=34-	=34-	=34-
!	!	!	!	!	!	!LO:LB:g=original	!
4.d\	Do-	4.a\	Do-	2dd\	-no	2ff\	-no
!	!	!LO:SIC:v:t=custos a	!	!	!	!	!
8e\	-mi-	8a\	-mi-	.	.	.	.
!	!	!LO:LB:g=original	!	!	!	!	!
2f\	-no	2a\	-no	4r	.	4r	.
*	*	*	*	*	*	*	*ij
.	.	.	.	4a\	ser-	4cc,<\	ser-
=35-	=35-	=35-	=35-	=35-	=35-	=35-	=35-
4r	.	4r	.	4a\	-vi-	4cc\	-vi-
*	*	*	*ij	*	*	*	*
!	!	!	!	!LO:SIC:v:t=custos a	!	!	!
4f\	ser-	4a\	ser-	4a\	-te	4cc\	-te
!	!	!	!	!LO:LB:g=original	!	!	!
4f\	-vi-	4a\	-vi-	4.a\	Do-	4.cc\	Do-
4f\	-te	4a\	-te	.	.	.	.
.	.	.	.	8b-\	-mi-	8dd,<\	-mi-
=36-	=36-	=36-	=36-	=36-	=36-	=36-	=36-
4.c/	Do-	4.g\	Do-	2cc\	-no	2ee-X\	-no
*	*	*	*	*	*	*	*Xij
8d\	-mi-	8g\	-mi-	.	.	.	.
2e-X\	-no	2g\	-no	4r	.	4r	.
*	*	*	*Xij	*	*	*	*
.	.	.	.	4g/	ser-	4b-/	ser-
=37-	=37-	=37-	=37-	=37-	=37-	=37-	=37-
4e-\	in	4g\	in	4g/	-vi-	4b-/	-vi-
4e-\	lae-	4g\	lae-	4g/	-te	4b-/	-te
4.e-\	-ti-	4.g\	-ti-	4.g/	Do-	4.b-/	Do-
8e-\	-ti-	8g\	-ti-	8a\	-mi-	8cc,<\	-mi-
=38-	=38-	=38-	=38-	=38-	=38-	=38-	=38-
2B-/	-a	2f,<\	-a	2b-\	-no	2dd\	-no
4G/	in	4g\	in	4b-\	in	4dd\	in
4G/	lae-	4g\	lae-	4b-\	lae-	4dd,<\	lae-
=39-	=39-	=39-	=39-	=39-	=39-	=39-	=39-
2.d\	-ti-	2g\	-ti-	2.a\	-ti-	2.dd\	-ti-
.	.	2f#X\	-ti-	.	.	.	.
4d\	-ti-	.	.	4a\	-ti-	4dd,<\	-ti-
=40-	=40-	=40-	=40-	=40-	=40-	=40-	=40-
!	!	!	!	!LO:N:acc=#	!	!	!
2G/	-a	1g	-a	1bn	-a	1dd	-a
!LO:SIC:v:t=custos c	!	!	!	!	!	!	!
2G/	ser-	.	.	.	.	.	.
=41-	=41-	=41-	=41-	=41-	=41-	=41-	=41-
!LO:LB:g=original	!	!	!	!	!	!	!
2c/	-vi-	1r	.	2r	.	1r	.
4A/	-te	.	.	2cc\	ser-	.	.
4A/	ser-	.	.	.	.	.	.
=42-	=42-	=42-	=42-	=42-	=42-	=42-	=42-
2B-/	-vi-	2d/	ser-	2dd\	-vi-	2r	.
2G/	-te	2g\	-vi-	4b-y\	-te	2dd\	ser-
.	.	.	.	4b-\	ser-	.	.
=43-	=43-	=43-	=43-	=43-	=43-	=43-	=43-
2.A/	Do-	4g\	-te	2cc\	-vi-	2cc\	-vi-
.	.	4fny\	ser-	.	.	.	.
!	!	!	!	!	!	!LO:SIC:v:t=custos ff	!
.	.	4f\	-vi-	2a,<\	-te	2ff\	-te
!	!	!LO:SIC:v:t=custos g	!	!	!	!	!
4B-/	.	4d/	-te	.	.	.	.
=44-	=44-	=44-	=44-	=44-	=44-	=44-	=44-
!	!	!LO:LB:g=original	!	!	!	!LO:LB:g=original	!
4.c/	.	4.g\	Do-	4.g/	Do-	4ff\	Do-
.	.	.	.	.	.	4eeny\	-mi-
8c/	-mi-	8g\	-mi-	8g/	-mi-	.	.
!	!	!	!	!LO:SIC:v:t=custos cc	!	!	!
2F/	-no	2f\	-no	2cc\	-no	2ff,<\	-no
=45-	=45-	=45-	=45-	=45-	=45-	=45-	=45-
!	!	!	!	!LO:LB:g=original	!	!	!
2f\	in	2a\	in	2cc\	in	2ff\	in
2d\	lae-	2b-\	lae-	2dd\	lae-	2ff,<\	lae-
=46-	=46-	=46-	=46-	=46-	=46-	=46-	=46-
2.e-X\	-ti-	2.g\	-ti-	2.b-\	-ti-	2.ee-X\	-ti-
4e-\	-ti-	4g\	-ti-	4b-\	-ti-	4ee-,<\	-ti-
=47-	=47-	=47-	=47-	=47-	=47-	=47-	=47-
2c,</	-a	2a\	-a	2cc\	-a,	2ee-\	-a
2c\	in	2f\	in	2a\	in	2dd,<\	in
=48-	=48-	=48-	=48-	=48-	=48-	=48-	=48-
2B-/	lae-	2g\	lae-	2b-\	lae-	2dd\	lae-
2.c/	-ti-	2.e/	-ti-	2.g/	-ti-	2.cc\	-ti-
=49-	=49-	=49-	=49-	=49-	=49-	=49-	=49-
.	.	.	.	.	.	.	.
4c/	-ti-	4e/	-ti-	4g/	-ti-	4cc\	-ti-
2A/	-a	2f\	-a	2a\	-a	2cc,<\	-a
=50-	=50-	=50-	=50-	=50-	=50-	=50-	=50-
*	*	*	*	*	*	*	*ij
1.B-	in	1.f	in	1f	in	1.dd	in
=51-	=51-	=51-	=51-	=51-	=51-	=51-	=51-
.	.	.	.	1b-	lae-	.	.
2G/	lae-	2g\	lae-	.	.	2b-,</	lae-
=52-	=52-	=52-	=52-	=52-	=52-	=52-	=52-
1.d	-ti-	2f#X\	-ti-	2a\	-ti-	1.dd	-ti-
.	.	1g\	.	2b-\	.	.	.
=53-	=53-	=53-	=53-	=53-	=53-	=53-	=53-
.	.	.	.	2.a\	.	.	.
2d\	-ti-	2f#X\	ti-	.	.	2dd,<\	-ti-
.	.	.	.	4a\	-ti-	.	.
=54-	=54-	=54-	=54-	=54-	=54-	=54-	=54-
!	!	!	!	!LO:N:acc=#	!	!	!
1G	-a	1g	-a	1bn,<	-a	1dd	-a
*	*	*	*	*	*	*	*Xij
=55-	=55-	=55-	=55-	=55-	=55-	=55-	=55-
!LO:SIC:v:t=custos g	!	!	!	!	!	!	!
00r	.	2.g\	in-	2g/	in-	00r	.
.	.	.	.	2a\	-tro-	.	.
.	.	4f#X\	-tro-	.	.	.	.
=56-	=56-	=56-	=56-	=56-	=56-	=56-	=56-
.	.	2g\	-i-	2b-y\	-i-	.	.
!	!	!LO:SIC:v:t=custos g	!	!LO:SIC:v:t=custos b	!	!	!
.	.	2d/	-te	2a,<\	-te	.	.
=57-	=57-	=57-	=57-	=57-	=57-	=57-	=57-
!	!	!LO:LB:g=original	!	!	!	!	!
.	.	4g\	in	4b-\	in	.	.
.	.	4f#X\	con-	4a\	con-	.	.
!	!	!	!	!LO:LB:g=original	!	!	!
.	.	4g\	-spec-	4b-\	-spec-	.	.
.	.	4b-\	-tu	4dd\	-tu	.	.
=58-	=58-	=58-	=58-	=58-	=58-	=58-	=58-
.	.	2a\	e-	2cc#X\	e-	.	.
.	.	2d/	-ius	2dd\	-ius	.	.
=59-	=59-	=59-	=59-	=59-	=59-	=59-	=59-
!LO:LB:g=original	!	!	!	!	!	!	!
2g\	in-	2g\	in-	2b-\	in-	2dd\	in-
2eny\	-tro-	2g\	-tro-	2ccny\	-tro-	2eeny,<\	-tro-
=60-	=60-	=60-	=60-	=60-	=60-	=60-	=60-
2d\	-i-	2a\	-i-	2dd\	-i-	2ff\	-i-
!	!	!	!	!	!	!LO:SIC:v:t=custos dd	!
2A/	-te	2a,<\	-te	2cc,<\	-te	2ee,<\	-te
=61-	=61-	=61-	=61-	=61-	=61-	=61-	=61-
!	!	!	!	!	!	!LO:LB:g=original	!
4B-/	in	4fny\	in	4b-\	in	4dd\	in
4G/	con-	4g\	con-	4b-\	con-	4dd\	con-
4A/	-spec-	4e/	-spec-	4a\	-spec-	4cc#X\	-spe-
4B-/	-tu	4d/	-tu	4dd\	-tu	4dd,<\	-ctu
=62-	=62-	=62-	=62-	=62-	=62-	=62-	=62-
2A/	e-	2a\	e-	(4dd\	e-	2ee\	e-
.	.	.	.	4cc#X\)	.	.	.
2d\	-ius	2f#X\	-ius	2dd\	-ius	2dd,<\	-ius
=63-	=63-	=63-	=63-	=63-	=63-	=63-	=63-
2G/	in-	1r	.	0r	.	0r	.
2A/	-tro-	.	.	.	.	.	.
=64-	=64-	=64-	=64-	=64-	=64-	=64-	=64-
2B-/	-i-	2d/	in-	.	.	.	.
2G/	-te	2e/	-tro-	.	.	.	.
=65-	=65-	=65-	=65-	=65-	=65-	=65-	=65-
2d\	in	2fny\	-i-	2f/	in-	2a/	in-
2B-/	con-	2d/	-te	2g/	-tro-	2b-,</	-tro-
=66-	=66-	=66-	=66-	=66-	=66-	=66-	=66-
2A/	-spec-	2e/	in	2a\	i-	2ccny\	-i-
2d\	-tu	2f\	con-	2f,</	-te	2a,</	-te
=67-	=67-	=67-	=67-	=67-	=67-	=67-	=67-
4G/	e-	1g	-spe-	2.g/	in	2.b-/	in
4F/	.	.	.	.	.	.	.
4G/	.	.	.	.	.	.	.
4A/	.	.	.	4g/	con-	4cc,<\	con-
=68-	=68-	=68-	=68-	=68-	=68-	=68-	=68-
2B-/	.	2f\	-ctu	2f/	-spec-	2dd\	-spec-
2G/	.	1g\	e-	2b-\	-tu	2dd,<\	-tu
=69-	=69-	=69-	=69-	=69-	=69-	=69-	=69-
0A	.	.	.	0a	e-	2cc#X\	e-
!	!	!LO:SIC:v:t=custos e	!	!	!	!	!
.	.	2f\	.	.	.	1dd\	.
=70-	=70-	=70-	=70-	=70-	=70-	=70-	=70-
!	!	!LO:PB:g=original	!	!	!	!	!
.	.	1e	.	.	.	.	.
.	.	.	.	.	.	2cc#X,<\	.
=71-	=71-	=71-	=71-	=71-	=71-	=71-	=71-
1d	-ius	2f#X,<\	-ius	2f#X,</	-ius	1dd	-ius
!	!	!	!	!LO:SIC:v:t=custos cc	!	!	!
.	.	2d/	in	2dd\	in	.	.
=72-	=72-	=72-	=72-	=72-	=72-	=72-	=72-
!	!	!	!	!LO:PB:g=original	!	!	!
1r	.	4.e/	e-	4.ccny\	e-	1r	.
.	.	8f#X\	-xul-	8cc\	-xul-	.	.
.	.	4g\	-ta-	4b-\	-ta-	.	.
.	.	4g\	-ti-	4b-\	-ti-	.	.
=73-	=73-	=73-	=73-	=73-	=73-	=73-	=73-
2r	.	(4g\	-o-	2a\	-o-	2r	.
!	!	!LO:TX:b:t=P:problem:# below	!	!	!	!	!
.	.	4f#X\)	.	.	.	.	.
2G/	in	2g\	-ne	2g/	-ne	2b-/	in-
=74-	=74-	=74-	=74-	=74-	=74-	=74-	=74-
4.A/	e-	1r	.	1r	.	4.ccny\	-e-
!LO:SIC:v:t=custos c	!	!	!	!	!	!LO:SIC:v:t=custos ee	!
8B-/	-xul-	.	.	.	.	8dd\	-xul-
!LO:LB:g=original	!	!	!	!	!	!LO:PB:g=original	!
4c/	-ta-	.	.	.	.	4ee\	-ta-
4A/	-ti-	.	.	.	.	4cc,<\	-ti-
=75-	=75-	=75-	=75-	=75-	=75-	=75-	=75-
2B-/	-o-	2g\	in	2r	.	2dd\	-o-
4A/	-ne	4.a\	e-	2cc\	in	4cc\	-ne
4F/	in	.	.	.	.	4a,</	in
.	.	8a\	-xul-	.	.	.	.
=76-	=76-	=76-	=76-	=76-	=76-	=76-	=76-
4.G/	e-	2g\	-ta-	4.b-\	e-	4.b-/	e-
8A/	-xul-	.	.	8a\	-xul-	8cc\	-xul-
4B-/	-ta-	2g\	-ti-	4g/	-ta-	4dd\	-ta-
4G/	-ti-	.	.	4b-\	-ti-	4b-,</	-ti-
=77-	=77-	=77-	=77-	=77-	=77-	=77-	=77-
2A/	-o-	2e/	-o-	2a\	-o-	2cc#X\	-o-
4D/	-ne	4fny,<\	-ne	4fny/	-ne	4dd,<\	-ne
*	*	*	*	*	*	*	*ij
4d\	in	4f\	in	4a\	in	4ff\	in
=78-	=78-	=78-	=78-	=78-	=78-	=78-	=78-
2.B-/	e-	2.f\	e-	4.b-\	e-	4.dd\	e-
.	.	.	.	8cc\	-xul-	8ee\	-xul-
.	.	.	.	4dd\	-ta-	4ff\	-ta-
4B-/	-xul-	4f\	-xul-	4b-\	-ti-	4dd,<\	-ti-
=79-	=79-	=79-	=79-	=79-	=79-	=79-	=79-
2c/	-ta-	2e-X/	-ta-	2g/	-o-	2ee-X\	-o-
2e-X\	-ti-	2g\	-ti-	4g/	-ne	4b-/	-ne
*	*	*	*	*	*	*	*Xij
.	.	.	.	4g/	in	4b-,</	in
=80-	=80-	=80-	=80-	=80-	=80-	=80-	=80-
1c	-o-	1e-X	-o-	4.a\	e-	4.ccny\	e-
.	.	.	.	8b-\	-xul-	8dd\	-xul-
.	.	.	.	4cc\	-ta-	4ee-X\	-ta-
.	.	.	.	4a\	-ti-	4cc,<\	-ti-
=81-	=81-	=81-	=81-	=81-	=81-	=81-	=81-
4G/	-ne	2.g\	-ne	2b-\	-o-	2dd\	-o-
4G/	in	.	.	.	.	.	.
4.A/	e-	.	.	4a\	-ne	4cc\	-ne
.	.	4f\	in	4a\	in	4cc,<\	in
8B-/	-xul-	.	.	.	.	.	.
=82-	=82-	=82-	=82-	=82-	=82-	=82-	=82-
2c/	-ta-	2eny/	e-	4.g/	e-	4.cc\	e-
!	!	!	!	!	!	!LO:SIC:v:t=custos ff	!
.	.	.	.	8g/	-xul-	8cc\	-xul-
!	!	!	!	!	!	!LO:LB:g=original	!
2F/	-ti-	2f\	-xul-	4a\	-ta-	4ff\	-ta-
.	.	.	.	4a\	-ti-	4ff,<\	-ti-
=83-	=83-	=83-	=83-	=83-	=83-	=83-	=83-
!	!	!	!	!LO:SIC:v:t=custos cc	!	!	!
!	!	!	!	!LO:N:acc=#	!	!	!
0G	-o-	2d/	-ta-	2bn\	-o-	2ff\	-o-
!	!	!	!	!LO:LB:g=original	!	!	!
.	.	2g\	-ti-	1cc\	.	2ee-X,<\	.
=84-	=84-	=84-	=84-	=84-	=84-	=84-	=84-
.	.	1g	-o-	.	.	1dd	.
!	!	!	!	!LO:N:acc=#	!	!	!
.	.	.	.	2bn\	.	.	.
=85-	=85-	=85-	=85-	=85-	=85-	=85-	=85-
!	!	!LO:SIC:v:t=custos e	!	!	!	!	!
2c/	-ne	2e/	-ne	2cc,<\	-ne	2cc,<\	-ne
!	!	!LO:LB:g=original	!	!	!	!	!
2c/	in	2e/	in	2cc\	in	2cc,<\	in
=86-	=86-	=86-	=86-	=86-	=86-	=86-	=86-
2.G/	e-	2.g\	e-	2.dd\	e-	2.b-/	e-
4A/	-xul-	4g\	-xul-	4dd\	-xul-	4cc,<\	-xul-
=87-	=87-	=87-	=87-	=87-	=87-	=87-	=87-
2B-/	-ta-	2.g\	-ta-	2dd\	-ta-	2dd\	-ta-
!LO:SIC:v:t=custos d	!	!	!	!	!	!	!
2c/	-ti-	.	.	2cc\	-ti-	2ee-X,<\	-ti-
.	.	4a\	-ti-	.	.	.	.
=88-	=88-	=88-	=88-	=88-	=88-	=88-	=88-
!LO:PB:g=original	!	!	!	!	!	!	!
0d	-o-	4f#X\	-o-	2cc\	-o-	0dd	-o-
.	.	4d/	.	.	.	.	.
.	.	1g\	.	2b-y\	.	.	.
=89-	=89-	=89-	=89-	=89-	=89-	=89-	=89-
.	.	.	.	1a	.	.	.
.	.	2f#X\	.	.	.	.	.
=90-	=90-	=90-	=90-	=90-	=90-	=90-	=90-
!	!	!	!	!LO:N:acc=#	!	!	!
!	!	!	!	!LO:TX:b:t=P:problem:# below	!	!	!
1G	-ne	1g,<	-ne	1bn,<	-ne	1dd	-ne
=91-	=91-	=91-	=91-	=91-	=91-	=91-	=91-
00r	.	2.g\	in-	2g/	in-	00r	.
.	.	.	.	2a\	-tro-	.	.
.	.	4f#X\	-tro-	.	.	.	.
=92-	=92-	=92-	=92-	=92-	=92-	=92-	=92-
.	.	2g\	-i-	2b-y\	-i-	.	.
.	.	2d/	-te	2a\	-te	.	.
=93-	=93-	=93-	=93-	=93-	=93-	=93-	=93-
.	.	4g\	in	4b-\	in	.	.
.	.	4f#X\	con-	4a\	con-	.	.
.	.	4g\	-spec-	4b-\	-spec-	.	.
.	.	4b-\	-tu	4dd\	-tu	.	.
=94-	=94-	=94-	=94-	=94-	=94-	=94-	=94-
.	.	2a\	e-	2cc#X\	e-	.	.
.	.	2d/	-ius	2dd\	-ius	.	.
=95-	=95-	=95-	=95-	=95-	=95-	=95-	=95-
2g\	in-	2g\	in-	2b-\	in-	2dd\	in-
2eny\	-tro-	2g\	-tro-	2ccny\	-tro-	2eeny,<\	-tro-
=96-	=96-	=96-	=96-	=96-	=96-	=96-	=96-
2d\	-i-	2a\	-i-	2dd\	-i-	2ff\	-i-
2A/	-te	2a\	-te	2cc\	-te	2ee,<\	-[te]
=97-	=97-	=97-	=97-	=97-	=97-	=97-	=97-
4B-/	in	4fny\	in	4b-\	in	4dd\	in
4G/	con-	4g\	con-	4b-\	con-	4dd\	con-
4A/	-spec-	4e/	-spec-	4a\	-spec-	4cc#X\	-spec-
4B-/	-tu	4d/	-tu	4dd\	-tu	4dd,<\	-tu
=98-	=98-	=98-	=98-	=98-	=98-	=98-	=98-
2A/	e-	2a\	e-	(4dd\	e-	2ee\	e-
.	.	.	.	4cc#X\)	.	.	.
!	!	!	!	!LO:SIC:v:t=custos f	!	!	!
2d\	-ius	2f#X\	-ius	2dd\	-ius	2dd,<\	-ius
=99-	=99-	=99-	=99-	=99-	=99-	=99-	=99-
!	!	!	!	!LO:LB:g=original	!	!	!
2G/	in-	1r	.	0r	.	0r	.
2A/	-tro-	.	.	.	.	.	.
=100-	=100-	=100-	=100-	=100-	=100-	=100-	=100-
2B-/	-i-	2d/	in-	.	.	.	.
2G/	-te	2e/	-tro-	.	.	.	.
=101-	=101-	=101-	=101-	=101-	=101-	=101-	=101-
2d\	in	2fny\	-i-	2f/	in-	2a/	in-
!	!	!LO:SIC:v:t=custos e	!	!	!	!	!
2B-/	con-	2d/	-te	2g/	-tro-	2b-,</	-tro-
=102-	=102-	=102-	=102-	=102-	=102-	=102-	=102-
!	!	!LO:LB:g=original	!	!	!	!LO:SIC:v:t=custos a	!
2A/	-spec-	2e/	in	2a\	-i-	2ccny\	-i-
!	!	!	!	!	!	!LO:LB:g=original	!
2d\	-tu	2f\	con-	2f/	-te	2a/	-te
=103-	=103-	=103-	=103-	=103-	=103-	=103-	=103-
4G/	e-	1g	-spec-	2.g/	in	2.b-/	in
4F/	.	.	.	.	.	.	.
4G/	.	.	.	.	.	.	.
4A/	.	.	.	4g/	con-	4cc,<\	con-
=104-	=104-	=104-	=104-	=104-	=104-	=104-	=104-
2B-/	.	2f\	-tu	2f/	-spec-	2dd\	-spec-
2G/	.	1g\	e-	2b-\	-tu	2ee,<\	-tu
=105-	=105-	=105-	=105-	=105-	=105-	=105-	=105-
!LO:SIC:v:t=custos d	!	!	!	!	!	!	!
0A	.	.	.	0a	e-	2cc#X\	e-
.	.	2f\	.	.	.	1dd\	.
=106-	=106-	=106-	=106-	=106-	=106-	=106-	=106-
.	.	1e	.	.	.	.	.
.	.	.	.	.	.	2cc#X,<\	.
=107-	=107-	=107-	=107-	=107-	=107-	=107-	=107-
!LO:LB:g=original	!	!	!	!	!	!	!
1d	-ius	2f#X,<\	-ius	2f#X/	-ius	1dd	-ius
.	.	2d,</	in	2dd\	in	.	.
=108-	=108-	=108-	=108-	=108-	=108-	=108-	=108-
1r	.	4.e/	e-	4.ccny\	e-	1r	.
.	.	8f#X\	-xul-	8cc\	-xul-	.	.
.	.	4g\	-ta-	4b-\	-ta-	.	.
.	.	4g\	-ti-	4b-\	-ti-	.	.
=109-	=109-	=109-	=109-	=109-	=109-	=109-	=109-
!LO:TX:t=P:problem:nieczytelne źródło	!	!	!	!	!	!	!
2ryy	.	(4g\	-o-	2a\	-o-	2r	.
.	.	4f#X\)	.	.	.	.	.
2G/	in	2g\	-ne	2g/	-ne	2b-/	in
=110-	=110-	=110-	=110-	=110-	=110-	=110-	=110-
4.A/	e-	1r	.	1r	.	4.ccny\	e-
8B-/	-xul-	.	.	.	.	8dd\	-xul-
4c/	-ta-	.	.	.	.	4ee\	-ta-
4A/	-ti-	.	.	.	.	4cc\	-ti-
=111-	=111-	=111-	=111-	=111-	=111-	=111-	=111-
2B-/	-o-	2g\	in	2r	.	2dd\	-o-
4A,</	-ne	4.a\	e-	2cc\	in	4cc,<\	-ne
4F/	in	.	.	.	.	4a,</	in
.	.	8a\	-xul-	.	.	.	.
=112-	=112-	=112-	=112-	=112-	=112-	=112-	=112-
!	!	!	!	!	!	!LO:TX:t=P:problem:dźwięk niewidoczny	!
4.G/	e-	2g\	-ta-	4.b-\	e-	4.b-/	e-
8A/	-xul-	.	.	8a\	-xul-	8cc\	-xul-
4B-/	-ta-	2g\	-ti-	4g/	-ta-	4dd\	-ta-
4G/	-ti-	.	.	4b-\	-ti-	4b-,</	-ti-
=113-	=113-	=113-	=113-	=113-	=113-	=113-	=113-
2A/	-o-	2e/	-o-	2a\	-o-	2cc#X\	-o-
4D/	-ne	4fny\	-ne	4fny/	-ne	4dd,<\	-ne
4d\	in	4f\	in	4a\	in	4ff,<\	in
=114-	=114-	=114-	=114-	=114-	=114-	=114-	=114-
2.B-/	e-	2.f\	e-	4.b-\	e-	4.dd\	e-
.	.	.	.	8cc\	-xul-	8ee\	-xul-
.	.	.	.	4dd\	-ta-	4ff\	-ta-
4B-/	-xul-	4f\	-xul-	4b-\	-ti-	4dd,<\	-ti-
=115-	=115-	=115-	=115-	=115-	=115-	=115-	=115-
2c/	-ta-	2e-X/	-ta-	2g/	-o-	2ee-X\	-o-
!	!	!	!	!	!	!LO:SIC:v:t=custos b	!
2e-X\	-ti-	2g\	-ti-	4g/	-ne	4b-/	-ne
!	!	!	!	!LO:SIC:v:t=custos a	!	!LO:LB:g=original	!
.	.	.	.	4g/	in	4b-,</	in
=116-	=116-	=116-	=116-	=116-	=116-	=116-	=116-
!	!	!	!	!LO:LB:g=original	!	!	!
1c	-o-	1e-X	-o-	4.a\	e-	4.ccny\	e-
.	.	.	.	8b-\	-xul-	8dd\	-xul-
.	.	.	.	4cc\	-ta-	4ee-X\	-ta-
.	.	.	.	4a\	-ti-	4cc,<\	-ti-
=117-	=117-	=117-	=117-	=117-	=117-	=117-	=117-
4G/	-ne	2.g\	-ne	2b-\	-o-	2dd\	-o-
4G/	in	.	.	.	.	.	.
4.A/	e-	.	.	4a,<\	-ne	4cc\	-ne
.	.	4f\	in	4a\	in	4cc\	in
8B-/	-xul-	.	.	.	.	.	.
=118-	=118-	=118-	=118-	=118-	=118-	=118-	=118-
!	!	!LO:SIC:v:t=custos f	!	!	!	!	!
2c/	-ta-	2eny/	e-	4.g/	e-	4.cc\	e-
.	.	.	.	8g/	-xul-	8cc\	-xul-
!	!	!LO:LB:g=original	!	!	!	!	!
2F/	-ti-	2f\	-xul-	4a\	-ta-	4ff\	-ta-
.	.	.	.	4a\	-ti-	4ff,<\	-ti-
=119-	=119-	=119-	=119-	=119-	=119-	=119-	=119-
!LO:SIC:v:t=custos c	!	!	!	!LO:N:acc=#	!	!	!
0G	-o-	2d/	-ta-	2bn\	-o-	2ff\	-o-
.	.	2g\	-ti-	1cc\	.	2ee-X,<\	.
=120-	=120-	=120-	=120-	=120-	=120-	=120-	=120-
.	.	1g	-o-	.	.	1dd,<	.
!	!	!	!	!LO:N:acc=#	!	!	!
.	.	.	.	2bn\	.	.	.
=121-	=121-	=121-	=121-	=121-	=121-	=121-	=121-
!LO:LB:g=original	!	!	!	!	!	!	!
2c/	-ne	2e/	-ne	2cc,<\	-ne	2cc,<\	-ne
2c/	in	2e/	in	2cc\	in	2cc,<\	in
=122-	=122-	=122-	=122-	=122-	=122-	=122-	=122-
2.G/	e-	2.g\	e-	2.dd\	e-	2.b-/	e-
4A/	-xul-	4g\	-xul-	4dd\	-xul-	4cc,<\	-xul-
=123-	=123-	=123-	=123-	=123-	=123-	=123-	=123-
2B-/	-ta-	2.g\	-ta-	2dd\	-ta-	2dd\	-ta-
2c/	-ti-	.	.	2cc,<\	-ti-	2ee-X,<\	-ti-
.	.	4a\	-ti-	.	.	.	.
=124-	=124-	=124-	=124-	=124-	=124-	=124-	=124-
0d	-o-	4f#X\	-o-	2cc\	-o-	0dd	-o-
.	.	4d/	.	.	.	.	.
.	.	1g\	.	2b-y\	.	.	.
=125-	=125-	=125-	=125-	=125-	=125-	=125-	=125-
.	.	.	.	1a	.	.	.
.	.	2f#X\	.	.	.	.	.
=126-	=126-	=126-	=126-	=126-	=126-	=126-	=126-
!	!	!	!	!LO:N:acc=#	!	!	!
1G	-ne	1g	-ne	1bn	-ne	1dd,<	-ne
=127-	=127-	=127-	=127-	=127-	=127-	=127-	=127-
2B-/	et	2fny\	et	2b-X\	et	2dd\	et
2.B-/	sci-	2.f\	sci-	2.b-\	sci-	2.dd\	sci-
=128-	=128-	=128-	=128-	=128-	=128-	=128-	=128-
.	.	.	.	.	.	.	.
4B-/	-to-	4f\	-to-	4b-\	-to-	4dd\	-to-
2B-/	-te	2f\	-te	2b-\	-te	2dd,<\	-te
=129-	=129-	=129-	=129-	=129-	=129-	=129-	=129-
2.f\	quo-	2.f\	quo-	2.a\	quo-	2.cc\	quo-
!	!	!	!	!LO:SIC:v:t=custos a	!	!	!
4f\	-ni-	4f\	-ni-	4a\	-ni-	4cc,<\	-ni-
=130-	=130-	=130-	=130-	=130-	=130-	=130-	=130-
!	!	!	!	!LO:LB:g=original	!	!LO:SIC:v:t=custos ff	!
2f\	-am	2f\	-am	2a\	-am	2cc\	-am
!	!	!	!	!	!	!LO:LB:g=original	!
2.d\	Do-	2.a\	Do-	2.dd\	Do-	2.ff\	Do-
=131-	=131-	=131-	=131-	=131-	=131-	=131-	=131-
.	.	.	.	.	.	.	.
4d\	-mi-	4a\	-mi-	4dd\	-mi-	4ff\	-mi-
2d\	-nus	2a\	-nus	2dd\	-nus	2ff,<\	-nus
=132-	=132-	=132-	=132-	=132-	=132-	=132-	=132-
2.A/	ip-	2.a\	ip-	2.cc\	ip-	2.eeny\	ip-
4A/	-se	4e/	-se	4cc\	-se	4ee,<\	-se
=133-	=133-	=133-	=133-	=133-	=133-	=133-	=133-
1B-	et	2g\	et	1g	et	1dd	et
.	.	1g\	De-	.	.	.	.
=134-	=134-	=134-	=134-	=134-	=134-	=134-	=134-
0A	De-	.	.	0a	De-	2cc#X\	De-
.	.	2f\	.	.	.	1dd\	.
=135-	=135-	=135-	=135-	=135-	=135-	=135-	=135-
.	.	1e	.	.	.	.	.
.	.	.	.	.	.	2cc#X,<\	-us
=136-	=136-	=136-	=136-	=136-	=136-	=136-	=136-
!	!	!LO:SIC:v:t=custos f	!	!	!	!	!
2d\	-us	2f\	-us	2a,<\	-us	2dd\	ip-
!	!	!LO:LB:g=original	!	!	!	!	!
4d\	ip-	4f\	ip-	4a\	ip-	4dd\	.
!LO:SIC:v:t=custos c	!	!	!	!	!	!	!
4d\	-se	4f\	-se	4a\	-se	4dd,<\	-se
=137-	=137-	=137-	=137-	=137-	=137-	=137-	=137-
!LO:LB:g=original	!	!	!	!	!	!	!
2.c/	fe-	2.g\	fe-	2.cc\	fe-	2.ee\	fe-
4c/	-cit	4g\	-cit	4cc\	-cit	4ee,<\	-cit
=138-	=138-	=138-	=138-	=138-	=138-	=138-	=138-
2F/	nos	2a\	nos	2a\	nos	2ff\	nos
2r	.	4f\	ip-	4a\	ip-	4ccny\	ip-
.	.	4f\	-se	4a\	-se	4cc,<\	-se
=139-	=139-	=139-	=139-	=139-	=139-	=139-	=139-
00r	.	2.d/	fe-	2.a\	fe-	2.ff\	fe-
.	.	4d/	-cit	4b-\	-cit	4ff,<\	-cit
=140-	=140-	=140-	=140-	=140-	=140-	=140-	=140-
.	.	2c/	nos	2cc\	nos	2ee\	nos
.	.	1f\	et	1a\	et	1cc\	et
=141-	=141-	=141-	=141-	=141-	=141-	=141-	=141-
.	.	.	.	.	.	.	.
.	.	2a\	non	2cc\	non	2cc,<\	non
=142-	=142-	=142-	=142-	=142-	=142-	=142-	=142-
.	.	2f\	ip-	2cc\	ip-	2.dd\	ip-
!	!	!	!	!LO:N:acc=#	!	!	!
.	.	2g\	-si	2bn\	-si	.	.
.	.	.	.	.	.	4dd,<\	-si
=143-	=143-	=143-	=143-	=143-	=143-	=143-	=143-
2c/	ip-	1e	nos	1cc,<	nos	1ee	nos
2c/	-se	.	.	.	.	.	.
=144-	=144-	=144-	=144-	=144-	=144-	=144-	=144-
2.A/	fe-	2a\	ip-	2cc\	et	1r	.
.	.	2a\	-se	2cc\	non	.	.
4B-/	-cit	.	.	.	.	.	.
=145-	=145-	=145-	=145-	=145-	=145-	=145-	=145-
2c/	nos	2e/	fe-	2g/	ip-	4cc\	ip-
.	.	.	.	.	.	4cc\	-se
1d\	et	2f\	-cit	2f/	-si	2.a,</	fe-
=146-	=146-	=146-	=146-	=146-	=146-	=146-	=146-
.	.	2f\	nos	1a	nos	.	.
.	.	.	.	.	.	4b-/	-cit
!	!	!	!	!	!	!LO:SIC:v:t=custos dd	!
2A/	non	2a\	et	.	.	2cc\	nos
=147-	=147-	=147-	=147-	=147-	=147-	=147-	=147-
!	!	!	!	!LO:SIC:v:t=custos a	!	!LO:LB:g=original	!
2B-/	i-	2g\	non	1r	.	2dd\	et
2c/	-psi	2e/	ip-	.	.	2cc,<\	non
=148-	=148-	=148-	=148-	=148-	=148-	=148-	=148-
!	!	!	!	!LO:LB:g=original	!	!	!
2F/	nos	2f\	-si	2r	.	2cc\	ip-
4F/	et	2f,<\	nos	4a\	ip-	2cc,<\	-si
4F/	non	.	.	4a\	-se	.	.
=149-	=149-	=149-	=149-	=149-	=149-	=149-	=149-
2.B-/	ip-	1.f	et	2.b-y\	fe-	2dd\	nos
.	.	.	.	.	.	4dd\	et
4B-/	-si	.	.	4b-\	-cit	4dd,<\	non
=150-	=150-	=150-	=150-	=150-	=150-	=150-	=150-
2F/	nos	.	.	2a\	nos	2cc\	ip-
1B-/	et	2f\	non	1b-\	et	2dd,<\	-si
=151-	=151-	=151-	=151-	=151-	=151-	=151-	=151-
.	.	1.f	ip-	.	.	2dd,<\	nos
2f\	non	.	.	2a,<\	non	4ff\	et
.	.	.	.	.	.	4ee,<\	.
=152-	=152-	=152-	=152-	=152-	=152-	=152-	=152-
1.B-	ip-	.	.	4b-\	i-	4dd\	.
.	.	.	.	4cc\	.	4cc\	.
.	.	2f\	-si	4dd\	.	4dd\	.
.	.	.	.	4cc\	.	4dd,<\	non
=153-	=153-	=153-	=153-	=153-	=153-	=153-	=153-
.	.	0f	nos	2b-\	.	2.dd\	ip-
2B-/	-si	.	.	2b-\	-psi	.	.
.	.	.	.	.	.	4dd,<\	-si
=154-	=154-	=154-	=154-	=154-	=154-	=154-	=154-
1F	nos	.	.	1a	nos	1cc	nos
=155-	=155-	=155-	=155-	=155-	=155-	=155-	=155-
!LO:SIC:v:t=custos B	!	!	!	!	!	!	!
00r	.	4f\	po-	2r	.	2r	.
.	.	8f\	-pu-	.	.	.	.
!	!	!LO:SIC:v:t=custos d	!	!	!	!	!
.	.	8e\	-lus	.	.	.	.
!	!	!LO:LB:g=original	!	!	!	!	!
.	.	4d/	e-	4dd\	po-	4ff\	po-
.	.	8d/	-ius	8dd\	-pu-	8ff\	-pu-
.	.	8d/	et	8cc\	-lus	8ee,<\	-lus
=156-	=156-	=156-	=156-	=156-	=156-	=156-	=156-
!	!	!	!	!LO:N:acc=#	!	!	!
.	.	4g\	o-	4bn\	e-	4dd\	e-
.	.	4g\	-ves	8b\	-ius	8dd\	-ius
.	.	.	.	8b\	et	8dd\	et
.	.	2.e/	pa-	4cc\	o-	4gg\	o-
.	.	.	.	4cc\	-ves	4gg,<\	-ves
=157-	=157-	=157-	=157-	=157-	=157-	=157-	=157-
.	.	.	.	4.g/	pas-	4.ee\	pas-
.	.	4e/	-scu-	.	.	.	.
.	.	.	.	8g/	-cu-	8ee\	-cu-
.	.	2f\	-ae	2a\	-ae	2cc,<\	-ae
=158-	=158-	=158-	=158-	=158-	=158-	=158-	=158-
*	*	*	*	*	*	*lig	*
.	.	4d/	e-	1.dd	e-	1ff	e-
.	.	4e/	.	.	.	.	.
.	.	4f\	.	.	.	.	.
.	.	4g\	.	.	.	.	.
=159-	=159-	=159-	=159-	=159-	=159-	=159-	=159-
!LO:LB:g=original	!	!	!	!	!	!LO:SIC:v:t=custos dd	!
1r	.	1a	.	.	.	1ee	.
.	.	.	.	2cc#X\	.	.	.
*	*	*	*	*	*	*Xlig	*
=160-	=160-	=160-	=160-	=160-	=160-	=160-	=160-
!	!	!	!	!	!	!LO:PB:g=original	!
4B-/	po-	1d	-iu[s]	1dd	-ius	1dd	-ius
8B-/	-pu-	.	.	.	.	.	.
8B-/	-lus	.	.	.	.	.	.
4G/	e-	.	.	.	.	.	.
8G/	-ius	.	.	.	.	.	.
8G/	et	.	.	.	.	.	.
=161-	=161-	=161-	=161-	=161-	=161-	=161-	=161-
4c/	o-	4e/	po-	2r	.	00r	.
4c/	-ves	8e/	-pu-	.	.	.	.
.	.	8e/	-lus	.	.	.	.
2.A/	pas-	2f\	e-	4ccny\	po-	.	.
.	.	.	.	8cc\	-pu-	.	.
.	.	.	.	8cc\	-lus	.	.
=162-	=162-	=162-	=162-	=162-	=162-	=162-	=162-
.	.	4f\	-ius	4a\	e-	.	.
4A/	-cu-	4f\	et	8a\	-ius	.	.
!	!	!	!	!LO:SIC:v:t=custos dd	!	!	!
.	.	.	.	8a\	et	.	.
!	!	!	!	!LO:LB:g=original	!	!	!
2B-,</	-ae	4d/	o-	4dd\	o-	.	.
.	.	4d/	-ves	4dd\	-ves	.	.
=163-	=163-	=163-	=163-	=163-	=163-	=163-	=163-
1c	e-	4.e/	pa-	2.cc\	pas-	.	.
.	.	8e/	-scu-	.	.	.	.
.	.	2a\	-ae	.	.	.	.
.	.	.	.	4cc\	-cu-	.	.
=164-	=164-	=164-	=164-	=164-	=164-	=164-	=164-
1d	.	4f#X\	e-	4cc\	-ae	.	.
.	.	2g\	.	4b-y\	e-	.	.
.	.	.	.	2a\	.	.	.
.	.	4f#X\	.	.	.	.	.
=165-	=165-	=165-	=165-	=165-	=165-	=165-	=165-
!	!	!	!	!LO:N:acc=#	!	!	!
1G,<	-ius	1g	-ius	1bn	-ius	4dd\	po-
.	.	.	.	.	.	8dd\	-pu-
.	.	.	.	.	.	8dd\	-lus
.	.	.	.	.	.	4b-/	e-
.	.	.	.	.	.	8b-/	-ius
.	.	.	.	.	.	8b-,</	et
=166-	=166-	=166-	=166-	=166-	=166-	=166-	=166-
4c/	po-	00r	.	4cc\	po-	4ee-X\	o-
8c/	-pu-	.	.	8cc\	-pu-	4ee-\	-ves
8c/	-lus	.	.	8cc\	-lus	.	.
4d\	e-	.	.	4b-y\	e-	2.dd,<\	pas-
8d\	-ius	.	.	8b-\	-ius	.	.
8d\	et	.	.	8b-\	et	.	.
=167-	=167-	=167-	=167-	=167-	=167-	=167-	=167-
2d\	o-	.	.	2b-\	o-	.	.
.	.	.	.	.	.	4dd\	-cu-
2d\	-ves	.	.	2b-\	-ves	2dd,<\	-ae
=168-	=168-	=168-	=168-	=168-	=168-	=168-	=168-
4.f\	pas-	.	.	2a\	pas-	2cc\	e-
8f\	-cu-	.	.	.	.	.	.
2B-/	-ae	.	.	2b-\	-cu-	2dd,<\	.
=169-	=169-	=169-	=169-	=169-	=169-	=169-	=169-
1f	e-	.	.	2b-\	-ae	1cc,<	.
.	.	.	.	2a\	e-	.	.
=170-	=170-	=170-	=170-	=170-	=170-	=170-	=170-
!LO:SIC:v:t=custos B	!	!	!	!	!	!	!
1B-	-ius	1r	.	1b-,<	-ius	1dd,<	-ius
=171-	=171-	=171-	=171-	=171-	=171-	=171-	=171-
!LO:LB:g=original	!	!	!	!	!	!	!
4B-/	po-	4fny\	po-	4b-\	po-	4dd\	po-
8B-/	-pu-	8f\	-pu-	8b-\	-pu-	8dd\	-pu-
8B-/	-lus	8f\	-lus	8b-\	-lus	8dd\	-lus
4F/	e-	4f\	e-	4a\	e-	4cc\	e-
8F/	-ius	8f\	-ius	8a\	-ius	8cc\	-ius
!	!	!LO:SIC:v:t=custos e	!	!	!	!	!
8F/	et	8f\	et	8a\	et	8cc,<\	et
=172-	=172-	=172-	=172-	=172-	=172-	=172-	=172-
!	!	!LO:LB:g=original	!	!	!	!	!
2c/	o-	2e/	o-	2g/	o-	2cc\	o-
2c/	-ves	2e/	-ves	2g/	-ves	2cc,<\	-ves
=173-	=173-	=173-	=173-	=173-	=173-	=173-	=173-
2.A/	pas-	2.f\	pas-	2.a\	pas-	2.cc\	pas-
4A/	-cu-	4f\	-cu-	4a\	-cu-	4cc,<\	-cu-
=174-	=174-	=174-	=174-	=174-	=174-	=174-	=174-
1B-	-ae	2f\	-ae	2f,</	-ae	1dd	-ae
.	.	2g\	e-	1b-\	e-	.	.
=175-	=175-	=175-	=175-	=175-	=175-	=175-	=175-
0c	e-	2e/	.	.	.	0cc	e-
.	.	1f\	.	2a\	.	.	.
=176-	=176-	=176-	=176-	=176-	=176-	=176-	=176-
.	.	.	.	1g	.	.	.
.	.	2e/	.	.	.	.	.
=177-	=177-	=177-	=177-	=177-	=177-	=177-	=177-
!	!	!	!	!LO:SIC:v:t=custos a	!	!	!
1F	-ius	1f,<	-ius	1a	-ius	1cc,<	-ius
=178-	=178-	=178-	=178-	=178-	=178-	=178-	=178-
!	!	!	!	!LO:LB:g=original	!	!	!
2.f\	in-	2.f\	in-	2.a\	in-	2.cc\	in-
4d\	-tro-	4f\	-tro-	4b-\	-tro-	4dd,<\	-tro-
=179-	=179-	=179-	=179-	=179-	=179-	=179-	=179-
2e-X\	-i-	2g\	-i-	2g/	-i-	2b-/	-i-
!	!	!	!	!	!	!LO:SIC:v:t=custos dd	!
2c/	-te	2e-X/	-te	2a\	-te	2ee-X\	-te
=180-	=180-	=180-	=180-	=180-	=180-	=180-	=180-
!	!	!	!	!	!	!LO:LB:g=original	!
2d\	por-	2f\	por-	2b-\	por-	2dd\	por-
2e-X\	-tas	2g\	-tas	2b-\	-tas	2b-,</	-tas
=181-	=181-	=181-	=181-	=181-	=181-	=181-	=181-
1c	e-	4e-X/	e	(2b-\	e-	1ee-X,<	e-
.	.	4f\	.	.	.	.	.
.	.	4g\	.	2a\)	.	.	.
.	.	4e-X/	.	.	.	.	.
=182-	=182-	=182-	=182-	=182-	=182-	=182-	=182-
2B-/	-ius	2f\	-ius	2b-\	-ius	2dd\	-ius
4B-/	in	4b-\	in	4dd\	in	4dd\	in
4c/	con-	4b-\	con-	4cc\	con-	4eeny,<\	con-
=183-	=183-	=183-	=183-	=183-	=183-	=183-	=183-
2.d\	-fe-	2.b-\	-fe-	2.b-\	-fes-	2.ff\	-fe-
4e-\	-si-	4b-\	-si-	4b-\	-si-	4ee-X,<\	.
=184-	=184-	=184-	=184-	=184-	=184-	=184-	=184-
1f	-o-	1f	-o-	4a\	-o-	4cc\	-si-
.	.	.	.	2b-\	.	4dd\	.
.	.	.	.	.	.	2cc,<\	-[o-]
.	.	.	.	4a\	.	.	.
=185-	=185-	=185-	=185-	=185-	=185-	=185-	=185-
!LO:SIC:v:t=custos B	!	!	!	!	!	!	!
1B-	-ne	1b-	-ne	1b-	-ne	1dd	-ne
=186-	=186-	=186-	=186-	=186-	=186-	=186-	=186-
!LO:LB:g=original	!	!	!	!	!	!	!
2r	.	2r	.	2r	.	2r	.
2.B-/	a-	2.f\	a-	2.b-\	at-	2.dd,<\	a-
=187-	=187-	=187-	=187-	=187-	=187-	=187-	=187-
.	.	.	.	.	.	.	.
4B-/	-tri-	4f\	-tri-	4b-\	-ri-	4dd,<\	-tri-
2F/	-a	2f\	-a	2a\	-a	2cc,<\	-a
=188-	=188-	=188-	=188-	=188-	=188-	=188-	=188-
2G/	e-	2d/	e-	2g/	e-	2b-,</	e-
4G/	-ius	4g\	-ius	4g/	-ius	4b-/	-ius
4G/	in	4g\	in	4g/	in	4b-,</	in
=189-	=189-	=189-	=189-	=189-	=189-	=189-	=189-
2c/	hym-	2eny/	hÿm-	2g/	hym-	2cc\	hym-
!	!	!LO:SIC:v:t=custos g	!	!	!	!	!
2c/	-nis	2e/	-nis	2cc\	-nis	2cc,<\	-nis
=190-	=190-	=190-	=190-	=190-	=190-	=190-	=190-
!	!	!LO:PB:g=original	!	!	!	!	!
4G/	con-	4g\	con-	4b-\	con-	4dd\	con-
4G/	-fi-	4g\	-fi-	4b-\	-fi-	4dd\	-fi-
4G/	-te-	4g\	-te-	4b-\	-te-	4dd\	-te-
8G/	-mi-	8g\	-mi-	8b-\	-mi-	8dd\	-mi-
8G/	-ni	8g\	-ni	8b-\	-ni	8dd,<\	-ni
=191-	=191-	=191-	=191-	=191-	=191-	=191-	=191-
2d\	il-	(4g\	il-	2a\	il-	2dd\	il-
.	.	4f#X\)	.	.	.	.	.
2G/	-li	2g\	-li	2b-\	-li	2dd,<\	-li
=192-	=192-	=192-	=192-	=192-	=192-	=192-	=192-
!	!	!	!	!LO:TX:t=P:problem:brakujce 2 takty pauzy	!	!	!
0r	.	4g\	con-	1ryy	.	4dd\	con-
.	.	4g\	-fi-	.	.	4dd,<\	-fi-
.	.	4e-X/	-te-	.	.	4ee-X\	-te-
.	.	8e-/	-mi-	.	.	8ee-\	-mi-
.	.	8e-/	-ni	.	.	8dd,<\	-ni
=193-	=193-	=193-	=193-	=193-	=193-	=193-	=193-
!	!	!	!	!	!	!LO:SIC:v:t=custos dd	!
.	.	2fny\	il-	1ryy	.	2cc\	il-
!	!	!	!	!	!	!LO:LB:g=original	!
.	.	2b-\	-li	.	.	2dd,<\	-li
=194-	=194-	=194-	=194-	=194-	=194-	=194-	=194-
*	*ij	*	*	*	*	*	*ij
4d\	con-	4a\	con-	4dd\	con-	4ff#X\	con-
4d\	-fi-	4a\	-fi-	4dd\	-fi-	4ff#,<\	-fi-
4G/	-te-	4b-\	-te-	4dd\	-te-	4gg\	-te-
8G/	-mi-	8b-\	-mi-	8dd\	-mi-	8gg\	-mi-
8G/	-ni	8b-\	-ni	8dd\	-ni	8ff#,<\	-ni
=195-	=195-	=195-	=195-	=195-	=195-	=195-	=195-
!	!	!	!	!LO:LB:g=original	!	!	!
2A/	il-	2a\	il-	(4dd\	il-	2eeny,<\	il-
!	!	!	!	!LO:TX:b:t=P:problem:# below	!	!	!
.	.	.	.	4cc#X\)	.	.	.
2d,<\	-li	2f#X\	-li	2dd\	-li	2dd,<\	-li
*	*Xij	*	*	*	*	*	*Xij
=196-	=196-	=196-	=196-	=196-	=196-	=196-	=196-
!	!	!	!	!LO:N:acc=#	!	!	!
4G/	con-	4g\	con-	4bn\	con-	4dd\	con-
4G/	-fi-	4g\	-fi-	4b\	-fi-	4dd,<\	-fi-
4c/	-te-	4g\	-te-	4ccny\	-te-	4ee-X\	-te-
8c/	-mi-	8g\	-mi-	8cc\	-mi-	8ee-\	-mi-
8c/	-ni	8g\	-ni	8cc\	-ni	8dd,<\	-ni
=197-	=197-	=197-	=197-	=197-	=197-	=197-	=197-
4F/	con-	4a\	con-	4a\	con-	4cc\	con-
!	!	!	!	!LO:TX:t=P:problem:dźwięk niewidoczny	!	!	!
4F/	-fi-	4a\	-fi-	4ryy	-fi-	4cc,<\	-fi-
4B-/	-te-	4fny\	-te-	4b-y\	-te-	4dd\	-te-
8B-/	-mi-	8f\	-mi-	8b-\	-mi-	8dd\	-mi-
!LO:SIC:v:t=custos F	!	!	!	!	!	!	!
8B-/	-ni	8f\	-ni	8b-\	-ni	8dd,<\	-ni
=198-	=198-	=198-	=198-	=198-	=198-	=198-	=198-
!LO:PB:g=original	!	!	!	!	!	!	!
2.F/	il-	2.a\	il-	4a\	il-	2.cc,<\	il-
.	.	.	.	4g/	.	.	.
.	.	.	.	4a\	.	.	.
4G/	.	4g\	.	4b-\	.	4b-,</	.
=199-	=199-	=199-	=199-	=199-	=199-	=199-	=199-
2.A/	.	2f\	.	4a\	.	2cc,<\	.
.	.	.	.	4b-\	.	.	.
.	.	1g\	.	2cc\	.	2ffny,<\	.
4B-/	.	.	.	.	.	.	.
=200-	=200-	=200-	=200-	=200-	=200-	=200-	=200-
*col	*	*	*	*	*	*	*
0c	.	.	.	0cc	.	2eeny,<\	.
*Xcol	*	*	*	*	*	*	*
.	.	2a\	.	.	.	1ff\	.
=201-	=201-	=201-	=201-	=201-	=201-	=201-	=201-
.	.	1g	.	.	.	.	.
.	.	.	.	.	.	2ee,<\	.
=202-	=202-	=202-	=202-	=202-	=202-	=202-	=202-
!	!	!LO:SIC:v:t=custos d	!	!	!	!	!
1F	-li	1f	-li	1a	-li,	1ff	-li
=203-	=203-	=203-	=203-	=203-	=203-	=203-	=203-
*M3/1	*	*M3/1	*	*M3/1	*	*M3/1	*
!	!	!LO:LB:g=original	!	!	!	!	!
1B-	Lau-	00.r	.	1dd	Lau-	00.r	.
1G/	-da-	.	.	1b-\	-da-	.	.
.	.	.	.	.	.	.	.
1A	-te	.	.	1cc	-te	.	.
=204-	=204-	=204-	=204-	=204-	=204-	=204-	=204-
0B-	no-	.	.	0dd	no-	.	.
.	.	.	.	.	.	.	.
1G	-men	.	.	1dd	-men	.	.
=205-	=205-	=205-	=205-	=205-	=205-	=205-	=205-
0A	e-	0.r	.	0cc#X	e-	0.r	.
.	.	.	.	.	.	.	.
1d	-ius	.	.	1dd	-ius	.	.
=206-	=206-	=206-	=206-	=206-	=206-	=206-	=206-
*	*	*	*	*	*ij	*	*
00.r	.	1d	Lau-	1f#X	Lau-	1a	Lau-
.	.	1g\	-da-	1g\	-da-	1b-\	-da-
.	.	.	.	.	.	.	.
.	.	1f	-te	1a	-te	1cc	-te
=207-	=207-	=207-	=207-	=207-	=207-	=207-	=207-
.	.	0B-	no-	0b-	no-	0dd	no-
.	.	.	.	.	.	.	.
.	.	1c	-men	1g	-men	1cc	-men
=208-	=208-	=208-	=208-	=208-	=208-	=208-	=208-
0.r	.	0d	e-	0f#X	e-	0a	e-
.	.	.	.	.	.	.	.
!	!	!	!	!LO:SIC:v:t=custos b	!	!	!
.	.	1g,<	-i(us)	1g	-ius	1b-	-ius
*	*	*	*	*	*Xij	*	*
=209-	=209-	=209-	=209-	=209-	=209-	=209-	=209-
!	!	!	!	!LO:LB:g=original	!	!LO:LB:g=original	!
1G	Lau-	1g	lau-	1b-	lau-	1dd	lau-
1A/	-da-	1f\	-da-	1a\	-da-	1cc\	-da-
.	.	.	.	.	.	.	.
1B-	-te	1f	-te	1g	-te	1dd	-te
=210-	=210-	=210-	=210-	=210-	=210-	=210-	=210-
*col	*	*	*	*col	*	*	*
0c	no-	0e-X	no-	0g	no-	0ee-X	no-
*Xcol	*	*	*	*Xcol	*	*	*
.	.	.	.	.	.	.	.
1G	-men	1g	-men	1b-	-men	1dd	-men
=211-	=211-	=211-	=211-	=211-	=211-	=211-	=211-
*M2/2	*	*M2/2	*	*M2/2	*	*M2/2	*
*met(c|)	*	*met(c|)	*	*met(c|)	*	*met(c|)	*
1d	e-	(2g\	e-	1a	e-	1dd	e-
.	.	2f#X\)	.	.	.	.	.
=212-	=212-	=212-	=212-	=212-	=212-	=212-	=212-
!	!	!	!	!LO:TX:b:t=P:problem:# below	!	!	!
!	!	!	!	!LO:N:acc=#	!	!	!
1G	-ius	1g	-ius	1bn	-ius	1dd	-ius
=213-	=213-	=213-	=213-	=213-	=213-	=213-	=213-
2r	.	2r	.	2r	.	2r	.
2.g\	quo-	2.g\	quo-	2.b-X\	Quo-	2.dd\	quo-
=214-	=214-	=214-	=214-	=214-	=214-	=214-	=214-
.	.	.	.	.	.	.	.
4g\	-ni-	4g\	-ni-	4b-\	-ni-	4dd\	-ni-
!LO:SIC:v:t=custos f	!	!	!	!	!	!	!
2g\	-am	2g\	-am	2b-\	-am	2dd\	-am
=215-	=215-	=215-	=215-	=215-	=215-	=215-	=215-
!LO:LB:g=original	!	!	!	!	!	!	!
2.f\	su-	2.a\	su-	2.ccny\	su-	2.ff\	su-
4f\	-a-	4a\	-a-	4cc\	-a-	4ff\	-a-
=216-	=216-	=216-	=216-	=216-	=216-	=216-	=216-
1d	-vis	1b-	-vis	1dd	-vis	2ff\	-vis
.	.	.	.	.	.	1dd\	Do-
=217-	=217-	=217-	=217-	=217-	=217-	=217-	=217-
2.e-X\	Do-	2.g\	D(o-	2.g/	Do-	.	.
.	.	.	.	.	.	2cc\	-mi-
4e-\	-mi-	4a\	-mi)-	4g/	-mi-	.	.
=218-	=218-	=218-	=218-	=218-	=218-	=218-	=218-
2d\	-nus	2f#X\	-nus	2a,<\	-nus	2dd,<\	-nus
2.G/	quo-	2.g\	quo-	2.b-\	quo-	2.dd\	quo-
=219-	=219-	=219-	=219-	=219-	=219-	=219-	=219-
.	.	.	.	.	.	.	.
4G/	-ni-	4g\	-ni-	4b-\	-ni-	4dd\	-ni-
2G/	-am	2g\	-am	2b-\	-a(m)	2dd\	-am
=220-	=220-	=220-	=220-	=220-	=220-	=220-	=220-
2A/	su-	2eny/	u-	2a\	su-	2cc\	su-
4A/	-a-	4e/	-a-	4a\	-a-	4cc\	-a-
!	!	!LO:SIC:v:t=custos a	!	!	!	!	!
4A/	-vis	4e/	-vis	4a\	-vis	4cc\	-vis
=221-	=221-	=221-	=221-	=221-	=221-	=221-	=221-
!	!	!LO:LB:g=original	!	!	!	!	!
2.F/	Do-	2.a\	Do-	2.cc\	D(o-	2.ff\	Do-
4F/	-mi-	4a\	-mi-	4cc\	-mi)-	4ff\	-mi-
=222-	=222-	=222-	=222-	=222-	=222-	=222-	=222-
1F	-nus	1fny	-nus	2a,<\	-nus	2cc\	-nus
.	.	.	.	2.a\	in	2.ff\	in
=223-	=223-	=223-	=223-	=223-	=223-	=223-	=223-
1r	.	1r	.	.	.	.	.
.	.	.	.	4a\	ae-	4cc\	ae-
.	.	.	.	2b-\	-ter-	2dd\	-ter-
=224-	=224-	=224-	=224-	=224-	=224-	=224-	=224-
2r	.	2r	.	1a	-num	1cc	-num
2.f\	in	2.a\	in	.	.	.	.
=225-	=225-	=225-	=225-	=225-	=225-	=225-	=225-
.	.	.	.	1r	.	1r	.
4d\	ae-	4b-\	ae-	.	.	.	.
2e-X\	-ter-	2g\	-ter-	.	.	.	.
=226-	=226-	=226-	=226-	=226-	=226-	=226-	=226-
4d\	-num	4f#X\	-num	2a\	mi-	2dd\	Mi-
4d\	mi-	4f#\	mi-	.	.	.	.
4d\	-se-	4f#\	-se-	4a\	-se-	4dd\	-se-
!	!	!	!	!LO:SIC:v:t=custos g	!	!LO:SIC:v:t=custos b	!
4d\	-ri-	4f#\	-ri-	4a\	-ri-	4dd\	-ri-
=227-	=227-	=227-	=227-	=227-	=227-	=227-	=227-
!	!	!	!	!LO:LB:g=original	!	!LO:LB:g=original	!
2.e-X\	-cor-	2.g\	-cor-	2.g/	-cor-	2.b-/	-cor-
4e-\	-di-	4g\	-di-	4g/	-di-	4b-/	-di-
=228-	=228-	=228-	=228-	=228-	=228-	=228-	=228-
1c	-a	2g\	-a	2cc\	-a	1ee-X	-a
.	.	2a\	e-	1cc\	e-	.	.
=229-	=229-	=229-	=229-	=229-	=229-	=229-	=229-
!LO:SIC:v:t=custos G	!	!	!	!	!	!	!
0d	e-	4f#X\	.	.	.	0dd	e-
.	.	4d/	.	.	.	.	.
.	.	1g\	.	2b-\	.	.	.
=230-	=230-	=230-	=230-	=230-	=230-	=230-	=230-
.	.	.	.	1a	.	.	.
.	.	2f#X\	.	.	.	.	.
=231-	=231-	=231-	=231-	=231-	=231-	=231-	=231-
1G	-ius	1g	-ius	4b-,<\	-ius	4dd\	-ius
.	.	.	.	4b-\	mi-	4dd\	mi-
.	.	.	.	4b-\	-se-	4dd\	-se-
.	.	.	.	4b-\	-ri-	4dd\	-ri-
=232-	=232-	=232-	=232-	=232-	=232-	=232-	=232-
2c/	mi-	2g\	mi-	2.cc\	-cor-	2.ee-X\	-cor-
4c/	-se-	4g\	-se-	.	.	.	.
4c/	-ri-	4g\	-ri-	4cc\	-di-	4ee-\	-di-
=233-	=233-	=233-	=233-	=233-	=233-	=233-	=233-
2.A/	-cor-	2.a\	-cor-	1cc	-a	1cc	-a
4A/	-di-	4a\	-di-	.	.	.	.
=234-	=234-	=234-	=234-	=234-	=234-	=234-	=234-
1B-	-a	1fny	-a	1b-	e-	1dd	e-
=235-	=235-	=235-	=235-	=235-	=235-	=235-	=235-
1G	e-	1g	e-	4dd,<\	-ius	4b-,</	-ius
.	.	.	.	4dd\	mi-	4b-/	mi-
.	.	.	.	4dd\	-se-	4b-/	-se-
.	.	.	.	4dd\	-ri-	4b-/	-ri-
=236-	=236-	=236-	=236-	=236-	=236-	=236-	=236-
4A/	-ius	4e/	-ius	2.cc\	-cor-	2.cc\	-cor-
4A/	mi-	4e/	mi-	.	.	.	.
4A/	-se-	4e/	-se-	.	.	.	.
4A/	-ri-	4e/	-ri-	4cc\	-di-	4cc\	-di-
=237-	=237-	=237-	=237-	=237-	=237-	=237-	=237-
4.F/	-cor-	4.f\	-cor-	2cc\	-a	2a/	-a
!	!	!LO:SIC:v:t=custos a	!	!	!	!	!
8F/	-di-	8f\	-di-	.	.	.	.
!	!	!LO:LB:g=original	!	!	!	!	!
2B-/	-a	2f\	-a	2b-\	e-	2.dd\	e-
=238-	=238-	=238-	=238-	=238-	=238-	=238-	=238-
4B-/	e-	1.f	e-	4b-,<\	-ius	.	.
4c/	.	.	.	4b-\	mi-	4eeny\	.
4d\	.	.	.	4b-\	-se-	4ff\	.
4B-/	.	.	.	4b-\	-ri-	4dd\	.
=239-	=239-	=239-	=239-	=239-	=239-	=239-	=239-
2c/	.	.	.	4.g/	-cor-	4ee\	.
.	.	.	.	.	.	4ff\	.
.	.	.	.	8g/	-di-	.	.
2e-X\	.	4g\	.	2cc\	-a	2.gg\	.
.	.	4a\	.	.	.	.	.
=240-	=240-	=240-	=240-	=240-	=240-	=240-	=240-
1d	.	2b-\	.	1dd	e-	.	.
.	.	.	.	.	.	8ff#X\L	.
.	.	.	.	.	.	8ee\J	.
!	!	!	!	!	!	!LO:TX:b:t=P:problem:# below	!
.	.	2a\	.	.	.	2ff#X\	.
=241-	=241-	=241-	=241-	=241-	=241-	=241-	=241-
!	!	!	!	!LO:N:acc=#	!	!	!
1G	-ius	1g	-ius	1bn	-ius	1gg	-ius
=242-	=242-	=242-	=242-	=242-	=242-	=242-	=242-
0r	.	0r	.	2bny\	et	2dd\	et
.	.	.	.	2cc\	Us-	2ee-X\	Us-
=243-	=243-	=243-	=243-	=243-	=243-	=243-	=243-
.	.	.	.	4a\	-q(ue)	4cc\	-q(ue)
.	.	.	.	4a\	in	4cc\	in
.	.	.	.	4.b-y\	ge-	4.dd\	ge-
.	.	.	.	8b-\	-ne-	8dd\	-ne-
=244-	=244-	=244-	=244-	=244-	=244-	=244-	=244-
2r	.	2r	.	4b-\	-ra-	4dd\	-ra-
.	.	.	.	4b-\	-ti-	4dd\	-ti-
2F/	et	2f\	et	2a\	-o-	2cc\	-o-
=245-	=245-	=245-	=245-	=245-	=245-	=245-	=245-
2B-/	Us-	2f\	Us-	4b-\	-nem	4dd\	-nem
!	!	!	!	!LO:SIC:v:t=custos b	!	!LO:SIC:v:t=custos dd	!
.	.	.	.	4b-\	et	4dd\	et
!	!	!	!	!LO:LB:g=original	!	!LO:LB:g=original	!
4B-/	-q(ue)	4f\	-q(ue)	4.b-\	ge-	4.dd\	ge-
4B-/	in	4f\	in	.	.	.	.
.	.	.	.	8cc\	-ne-	8ee-\	-ne-
=246-	=246-	=246-	=246-	=246-	=246-	=246-	=246-
4.B-/	ge-	4.f\	ge-	4dd\	-ra-	4ffny\	-ra-
.	.	.	.	4b-\	-ti-	4dd\	-ti-
!LO:SIC:v:t=custos d	!	!	!	!	!	!	!
8c/	-ne-	8f\	-ne-	.	.	.	.
!LO:LB:g=original	!	!	!	!	!	!	!
4d\	-ra-	4f\	-ra-	2dd\	-o-	2ff\	-o-
4B-/	-ti-	4f\	-ti-	.	.	.	.
=247-	=247-	=247-	=247-	=247-	=247-	=247-	=247-
2f\	-o-	2f\	-o-	4a\	-nem	2cc\	-nem
.	.	.	.	4a\	et	.	.
4B-/	-nem	4f\	-nem	2b-\	Us-	2r	.
4B-/	et	4f\	et	.	.	.	.
=248-	=248-	=248-	=248-	=248-	=248-	=248-	=248-
4.F/	ge-	4.f\	ge-	4a\	-q(ue)	2r	.
.	.	.	.	4a\	in	.	.
8G/	-ne-	8f\	-ne-	.	.	.	.
4A/	-ra-	4f\	-ra-	4.a\	ge-	2cc\	et
4F/	-ti-	4f\	-ti-	.	.	.	.
.	.	.	.	8b-\	-ne-	.	.
=249-	=249-	=249-	=249-	=249-	=249-	=249-	=249-
2c/	-o-	2e/	-o-	4cc\	-ra-	2eeny\	Us-
.	.	.	.	4cc\	-ti-	.	.
4F/	-nem	4f\	-nem	2a\	-o-	4cc\	-q(ue)
4F/	et	4f\	et	.	.	4cc\	in
=250-	=250-	=250-	=250-	=250-	=250-	=250-	=250-
2B-/	Us-	2f\	Us-	4b-\	-nem	4.dd\	ge-
.	.	.	.	4b-\	et	.	.
.	.	.	.	.	.	8ee\	-ne-
4B-/	-q(ue)	4f\	-q(ue)	4.b-\	ge-	4ff\	-ra-
!	!	!LO:SIC:v:t=custos a	!	!	!	!	!
4B-/	in	4f\	in	.	.	4dd\	-ti-
.	.	.	.	8cc\	-ne-	.	.
=251-	=251-	=251-	=251-	=251-	=251-	=251-	=251-
!	!	!LO:LB:g=original	!	!	!	!	!
4.B-/	ge-	4.f\	ge-	4dd\	-ra-	2ff\	-o-
.	.	.	.	4dd\	-ti-	.	.
8c/	-ne-	8f\	-ne-	.	.	.	.
4d\	-ra-	4f\	-ra-	2.b-\	-o-	4dd\	-nem
4B-/	-ti-	4f\	-ti-	.	.	4dd\	et
=252-	=252-	=252-	=252-	=252-	=252-	=252-	=252-
2c/	-o-	2e/	-o-	.	.	4.cc\	ge-
.	.	.	.	4a\	.	.	.
.	.	.	.	.	.	8dd\	-ne-
4c/	-nem	4g\	-nem	4g/	.	4ee\	-ra-
4c/	et	4a\	et	4fny/	.	4ff\	-ti-
=253-	=253-	=253-	=253-	=253-	=253-	=253-	=253-
*	*	*	*	*2\right	*	*	*
4.c/	ge-	4.g\	ge-	2cc\	.	(4ff\	-o-
*	*	*	*	*2\left	*	*	*
.	.	.	.	.	.	4ee\)	.
8c/	-ne-	8g\	-ne-	.	.	.	.
4F/	-ra-	4a\	-ra-	2a\	-nem	2ff\	-nem
4F/	-ti-	4a\	-ti-	.	.	.	.
=254-	=254-	=254-	=254-	=254-	=254-	=254-	=254-
1B-	-o-	1b-	-o-	1r	.	1r	.
=255-	=255-	=255-	=255-	=255-	=255-	=255-	=255-
!LO:SIC:v:t=custos F	!	!	!	!	!	!	!
2F/	-nem	2a\	-nem	2r	.	2r	.
!LO:LB:g=original	!	!	!	!	!	!	!
2.F/	Ve-	2.a\	Ve-	2.a\	Ve-	2.cc\	Ve-
=256-	=256-	=256-	=256-	=256-	=256-	=256-	=256-
.	.	.	.	.	.	.	.
4F/	-ri-	4a\	-ri-	4a\	-ri-	4cc\	-ri-
2G/	-tas	2g\	-tas	2b-\	-tas	2b-/	-tas
=257-	=257-	=257-	=257-	=257-	=257-	=257-	=257-
1.A	e-	4g\	e-	4a\	e-	4cc\	e-
.	.	4f\	.	4b-\	.	4b-\	.
.	.	1f\	.	4cc\	.	4a/	.
.	.	.	.	4b-\	.	4b-/	.
=258-	=258-	=258-	=258-	=258-	=258-	=258-	=258-
.	.	.	.	2a\	.	2cc\	.
!	!	!	!	!LO:TX:t=P:problem:fragment niewidoczny	!	!	!
2B-/	.	4e/	.	2ryy	.	2dd\	.
.	.	4d/	.	.	.	.	.
=259-	=259-	=259-	=259-	=259-	=259-	=259-	=259-
*col	*	*	*	*	*	*	*
0c	.	2g\	.	2ryy	.	2ee\	.
*Xcol	*	*	*	*	*	*	*
.	.	2a\	.	4a\	.	1ff\	.
.	.	.	.	4b-\	.	.	.
=260-	=260-	=260-	=260-	=260-	=260-	=260-	=260-
.	.	1g	.	1cc	.	.	.
.	.	.	.	.	.	2ee\	.
=261-	=261-	=261-	=261-	=261-	=261-	=261-	=261-
2F/	-ius	2a,<\	-ius	2a,<\	-ius	2ff,<\	-ius
2.B-/	Ve-	2.f\	Ve-	2.b-\	Ve-	2.dd\	Ve-
=262-	=262-	=262-	=262-	=262-	=262-	=262-	=262-
.	.	.	.	.	.	.	.
4B-/	-ri-	4f\	-ri-	4b-\	-ri-	4dd\	-ri-
2A/	-tas	2a\	-tas	2cc\	-tas	2ff\	-tas
=263-	=263-	=263-	=263-	=263-	=263-	=263-	=263-
0.B-	e-	2.f\	e-	4dd\	e-	4ff\	e-
.	.	.	.	4cc\	.	4ee\	.
.	.	.	.	4b-\	.	4dd\	.
.	.	8g\L	.	4a\	.	4cc\	.
!	!	!LO:SIC:v:t=custos b	!	!	!	!	!
.	.	8a\J	.	.	.	.	.
=264-	=264-	=264-	=264-	=264-	=264-	=264-	=264-
!	!	!LO:LB:g=original	!	!	!	!	!
.	.	1.b-	.	2.b-\	.	2.dd\	.
.	.	.	.	4cc\	.	4ee\	.
=265-	=265-	=265-	=265-	=265-	=265-	=265-	=265-
.	.	.	.	1dd	.	1ff	.
.	.	4a\	.	.	.	.	.
.	.	4g\	.	.	.	.	.
=266-	=266-	=266-	=266-	=266-	=266-	=266-	=266-
0F	-ius	0a	-ius	0cc;<	-ius	0ff;<	-ius
=267-	=267-	=267-	=267-	=267-	=267-	=267-	=267-
*-	*-	*-	*-	*-	*-	*-	*-
!!!system-decoration: [(s1,s2,s3,s4)]
!!!RDF**kern: < = below
!!!RDF**kern: > = above
!!!ENC: Filip Voros
!!!END: 2021-10-29
!!!ENC: Marta Chmielewska
!!!END: 2021-11-04
